!!!OTL: Ritter und Maid
!!!ARE: Europa, Mitteleuropa, Deutschland
!!!SCT: A0069A
!!!YEM: Copyright 1995, estate of Helmut Schaffrath.
**kern
*ICvox
*Ivox
*M4/2
*k[b-e-]
*g:
{2dd
=1
2dd
2cc
2dd
2ee-
=2
2.ffn
4gg
2.dd}
{4ffn
=3
2ee-
2dd
2cc
2b-
=4
1cc
2dd
4r}
{4cc
=5
2cc
4cc
4cc
2dd
2cc
=6
2.b-
4a
2.g}
{4a
=7
2b-
2cc
2dd
2b-
=8
1a
2g}
==
!!!AGN: Romanze, Ballade, Lied
!! Melodie bei Fr. Nicolai, Almanach I, 1771 No. 2.
!!!ONB: ESAC (Essen Associative Code) Database: ALTDEU
!!!AMT: simple quadruple
!!!AIN: vox
!!!EED: Helmut Schaffrath
!!!EEV: 1.0
*-
